symbols/web/reply/materialsymbolsoutlined/reply_gradN25_48px.svg

<svg xmlns="http://www.w3.org/2000/svg" height="48" width="48"><path d="M38.95 37.85v-8.6q0-2.7-1.9-4.6-1.9-1.9-4.6-1.9h-20.8l7.7 7.65-2 2.05L6.2 21.3l11.15-11.15 2 2-7.7 7.7h20.8q3.85 0 6.6 2.75 2.75 2.75 2.75 6.65v8.6Z"/></svg>

<svg xmlns="http://www.w3.org/2000/svg" height="48" width="48"><path d="M38.95 37.85V29.25Q38.95 26.55 37.05 24.65Q35.15 22.75 32.45 22.75H11.65L19.35 30.4L17.35 32.45L6.2 21.3L17.35 10.15L19.35 12.15L11.65 19.85H32.45Q36.3 19.85 39.05 22.6Q41.8 25.35 41.8 29.25V37.85Z"/></svg>
